X:86
T:Jethro's Tune
C:Jethro Burns
N:TablEdited by John Davis
L:1/8
Q:1/4=240
M:4/4
K:F
z8 |: "Dm"a/_a/g/_g/ e=g fd _de | dA FB AF DF | "E7"E_E =EG _AG A=A | =B_B =Bc d_d =df | 
"A7"e_d A_A GF ED | _D=D EF GB AG | "Dm"FE DF "A7"ED _DE |1 D3[dF] z[dF] [d2F2] :|2 D3[dF] z[dF] [dF]C | 
|: "D7"D_G Ac ec AG | "Adim7"_ec A_G "D7"dc BA | "Gm"GA Bc "D7"d_g ad' | "Gm"b8 | 
(3"E7"EF_A (3=Bcd fd BA | fd =B_A ed cB | "A7"A_d eg bg ed | [a8_d8] | "Dm"a/_a/g/_g/ e=g fd _de | 
dA FB AF D2 | "Gm"d/_d/c/=B/ Ac _BG _GA | GD B,_E DB, G,B, | "A7"A,_D EG "Edim7"B_d eg | 
bg e_d "A7"ag fe |1 d"Dm"e fg "A7"ad' af | "Dm"d8 :|2 d"Dm"e fg "A7"ad' af | "Dm"dd/e/ fa d'4 | 


